papirus/16x16/apps/chrome-bikioccmkafdpakkkcpdbppfkghcmihk-Default.svg

<svg height="16" viewBox="0 0 16 16" width="16" xmlns="http://www.w3.org/2000/svg"><path d="m8 0c-3.9017852 0-7.14713513 2.595404-7.85351562 6.0273438a8 7.5 0 0 0 -.18359375 1.5761718 8 7.5 0 0 0  3.03710937 5.8730464v2.523438l1.7773438-1.519531a8 7.5 0 0 0 3.1855468.623047 8 7.5 0 0 0  7.8554684-6.1074222c.117077-.505708.181641-1.0301616.181641-1.5683594 0-4.1026867-3.581722-7.4277344-8-7.4277344z" fill="#2090ea"/><ellipse cx="8" cy="7" fill="none" rx="5.5" ry="4.5" stroke="#fff" stroke-dasharray="2 1"/></svg>

<?xml version="1.0" encoding="UTF-8" standalone="no"?>
<svg
   xmlns:dc="http://purl.org/dc/elements/1.1/"
   xmlns:cc="http://creativecommons.org/ns#"
   xmlns:rdf="http://www.w3.org/1999/02/22-rdf-syntax-ns#"
   xmlns:svg="http://www.w3.org/2000/svg"
   xmlns="http://www.w3.org/2000/svg"
   id="svg2"
   viewBox="0 0 16 16"
   version="1.1"
   width="16"
   height="16">
  <metadata
     id="metadata51">
    <rdf:RDF>
      <cc:Work
         rdf:about="">
        <dc:format>image/svg+xml</dc:format>
        <dc:type
           rdf:resource="http://purl.org/dc/dcmitype/StillImage" />
        <dc:title></dc:title>
      </cc:Work>
    </rdf:RDF>
  </metadata>
  <defs
     id="defs4" />
  <path
     style="fill:#2090ea;fill-opacity:1"
     d="M 8,0 C 4.0982148,0 0.85286487,2.595404 0.14648438,6.0273438 A 8,7.5 0 0 0 -0.03710937,7.6035156 8,7.5 0 0 0 3,13.476562 L 3,16 4.7773438,14.480469 A 8,7.5 0 0 0 7.9628906,15.103516 8,7.5 0 0 0 15.818359,8.9960938 C 15.935436,8.4903858 16,7.9659322 16,7.4277344 16,3.3250477 12.418278,0 8,0 Z"
     id="path37" />
  <ellipse
     ry="4.5"
     rx="5.5"
     cy="7"
     cx="8"
     id="path4139"
     style="opacity:1;fill:none;fill-opacity:1;stroke:#ffffff;stroke-width:1;stroke-linecap:butt;stroke-linejoin:miter;stroke-miterlimit:4;stroke-dasharray:2, 1;stroke-dashoffset:0;stroke-opacity:1" />
</svg>
